!!!ONR: No. 41
!! From Harold Courlander, "Haiti Singing"
!! Chapel Hill: University of North Carolina Press, 1939
!! Copyright University of North Carolina Press
!!!ENC: D. Huron
**kern
*clefG2
*k[]
*M2/4
=1-
8c
8e
[4g
=
8g]
8a
4cc
=
8dd
8cc
[4g
=
2g]
=
8c
8e
[4g
=
8g]
8a
4cc
=
8dd
8cc
[4g
=
2g]
=
8ee
8dd
8ee
8a
=
4.cc
8dd
=
8ee
8dd
[4c
=
2cc]
==
*-
